images/icon/board.svg

<svg width="40" height="40" viewBox="0 0 40 40" fill="none" xmlns="http://www.w3.org/2000/svg">
<path d="M9.57105 27.2652V34.2853C9.57105 36.4453 6.06099 35.9953 6.06099 34.2853L6.241 21.4151L4.89097 25.4651C3.99096 27.8952 1.92092 26.3651 2.37093 25.1951L4.17096 19.345C4.80097 16.825 7.23101 18.175 8.40103 18.265C8.85104 18.355 9.21105 18.355 9.66106 18.355C12.7211 18.355 12.7211 16.915 16.1412 14.9349C17.9412 13.9449 19.4712 16.285 17.4912 17.545L12.9011 21.145L13.0811 34.2853C13.0811 36.4453 9.57105 35.9953 9.57105 34.2853" stroke="#544545" stroke-width="2" stroke-miterlimit="22.9256" stroke-linecap="round" stroke-linejoin="round"/>
<path d="M9.661 10.1649C11.371 10.1649 12.7211 11.5149 12.7211 13.225C12.7211 14.935 11.371 16.285 9.661 16.285C7.95097 16.285 6.60095 14.935 6.60095 13.225C6.60095 11.5149 7.95097 10.1649 9.661 10.1649Z" stroke="#544545" stroke-width="2" stroke-miterlimit="22.9256" stroke-linecap="round" stroke-linejoin="round"/>
<path d="M16.3248 23.3327L22.0976 19.0181L26.0475 20.1197L32.0228 10.9396L28.2756 11.7658" stroke="#E60000" stroke-width="2" stroke-miterlimit="22.9256" stroke-linecap="round" stroke-linejoin="round"/>
<path d="M8.401 10.1133V5.84509H36.1539V26.7254H13.4331" stroke="#544545" stroke-width="2" stroke-miterlimit="22.9256" stroke-linecap="round" stroke-linejoin="round"/>
<path d="M23.1036 26.7255V33.8356" stroke="#544545" stroke-width="2" stroke-miterlimit="22.9256" stroke-linecap="round" stroke-linejoin="round"/>
<path d="M23.1036 5.75492V3.50488" stroke="#544545" stroke-width="2" stroke-miterlimit="22.9256" stroke-linecap="round" stroke-linejoin="round"/>
<path d="M23.1036 30.4156L28.9537 35.7257" stroke="#544545" stroke-width="2" stroke-miterlimit="22.9256" stroke-linecap="round" stroke-linejoin="round"/>
<path d="M23.0137 30.4156L17.1636 35.7257" stroke="#544545" stroke-width="2" stroke-miterlimit="22.9256" stroke-linecap="round" stroke-linejoin="round"/>
</svg>

<svg width="40" height="40" fill="none" xmlns="http://www.w3.org/2000/svg"><path d="M9.571 27.265v7.02c0 2.16-3.51 1.71-3.51 0l.18-12.87-1.35 4.05c-.9 2.43-2.97.9-2.52-.27l1.8-5.85c.63-2.52 3.06-1.17 4.23-1.08.45.09.81.09 1.26.09 3.06 0 3.06-1.44 6.48-3.42 1.8-.99 3.33 1.35 1.35 2.61l-4.59 3.6.18 13.14c0 2.16-3.51 1.71-3.51 0" stroke="#544545" stroke-width="2" stroke-miterlimit="22.926" stroke-linecap="round" stroke-linejoin="round"/><path d="M9.661 10.165c1.71 0 3.06 1.35 3.06 3.06s-1.35 3.06-3.06 3.06-3.06-1.35-3.06-3.06 1.35-3.06 3.06-3.06z" stroke="#544545" stroke-width="2" stroke-miterlimit="22.926" stroke-linecap="round" stroke-linejoin="round"/><path d="M16.325 23.333l5.773-4.315 3.95 1.102 5.975-9.18-3.747.826" stroke="#E60000" stroke-width="2" stroke-miterlimit="22.926" stroke-linecap="round" stroke-linejoin="round"/><path d="M8.401 10.113V5.845h27.753v20.88h-22.72m9.67.001v7.11m0-28.081v-2.25m0 26.911l5.85 5.31m-5.94-5.31l-5.85 5.31" stroke="#544545" stroke-width="2" stroke-miterlimit="22.926" stroke-linecap="round" stroke-linejoin="round"/></svg>
